public/images/icon-6.svg

<svg fill="none" height="32" viewBox="0 0 32 32" width="32" xmlns="http://www.w3.org/2000/svg"><g fill="#5e6b7e"><path d="m6.48572 5.35066c-2.38715 1.49197-3.57663 3.36689-3.57663 5.19484 0 1.8279.40737 2.9876 4.36364 5.4545 2.90907 1.5083 14.72897 5.8452 14.72897 5.8452.8391.2205 2.3475.7865 3.1116 1.0941.6877.3109 1.3374.657 1.9428 1.0354 2.8773 1.7983 4.9439 4.4688 4.9439 7.6617 0 .1219-.003.2432-.009.3636h-2.9157c.0104-.1213.0156-.2426.0156-.3636 0-1.8279-1.1895-3.7029-3.5766-5.1948-.8367-.523-1.7976-.9813-2.8576-1.3554 0 0-14.66802-5.0679-17.56579-6.8791-3.94705-2.4669-5.09091-4.4688-5.09091-7.6616 0-3.19291 2.06663-5.86345 4.9439-7.66174 2.89777-1.81111 6.8105-2.88376 11.0561-2.88376s8.1583 1.07265 11.0561 2.88376c2.8773 1.79829 4.9439 4.46883 4.9439 7.66174 0 3.1928-2.0666 5.8634-4.9439 7.6616-.5652.3533-1.169.6784-1.8063.973l-3.9318-1.6718c1.5979-.4252 3.0198-1.0328 4.1963-1.7681 2.3871-1.4919 3.5766-3.3668 3.5766-5.1947 0-1.82795-1.1895-3.70287-3.5766-5.19484-2.3667-1.47915-5.7267-2.44157-9.5143-2.44157s-7.14763.96242-9.51428 2.44157z"/><path d="m6.48572 26.4416c-2.38715 1.4919-3.57663 3.3669-3.57663 5.1948 0 .121.00522.2423.01565.3636h-2.91576084c-.00596276-.1204-.00897916-.2417-.00897916-.3636 0-3.1929 2.06663-5.8634 4.9439-7.6617.644-.4025 1.33814-.7686 2.07491-1.0945l4.16679 1.6668c-1.8034.4268-3.4012 1.0829-4.69988 1.8946z"/><path d="m22.5455 31.6364c0 .1234-.0226.2448-.0663.3636h-12.95837c-.04368-.1188-.06628-.2402-.06628-.3636 0-1.4059 2.93045-2.5455 6.54545-2.5455s6.5455 1.1396 6.5455 2.5455z"/><path d="m16 12.3636c3.615 0 6.5455-1.1396 6.5455-2.54542 0-1.40581-2.9305-2.54545-6.5455-2.54545s-6.54545 1.13964-6.54545 2.54545c0 1.40582 2.93045 2.54542 6.54545 2.54542z"/></g></svg>

<svg width="32" height="32" viewBox="0 0 32 32" fill="none" xmlns="http://www.w3.org/2000/svg">
<path d="M6.48572 5.35066C4.09857 6.84263 2.90909 8.71755 2.90909 10.5455C2.90909 12.3734 3.31646 13.5331 7.27273 16C10.1818 17.5083 22.0017 21.8452 22.0017 21.8452C22.8408 22.0657 24.3492 22.6317 25.1133 22.9393C25.801 23.2502 26.4507 23.5963 27.0561 23.9747C29.9334 25.773 32 28.4435 32 31.6364C32 31.7583 31.997 31.8796 31.991 32H29.0753C29.0857 31.8787 29.0909 31.7574 29.0909 31.6364C29.0909 29.8085 27.9014 27.9335 25.5143 26.4416C24.6776 25.9186 23.7167 25.4603 22.6567 25.0862C22.6567 25.0862 7.98868 20.0183 5.09091 18.2071C1.14386 15.7402 0 13.7383 0 10.5455C0 7.35259 2.06663 4.68205 4.9439 2.88376C7.84167 1.07265 11.7544 0 16 0C20.2456 0 24.1583 1.07265 27.0561 2.88376C29.9334 4.68205 32 7.35259 32 10.5455C32 13.7383 29.9334 16.4089 27.0561 18.2071C26.4909 18.5604 25.8871 18.8855 25.2498 19.1801L21.318 17.5083C22.9159 17.0831 24.3378 16.4755 25.5143 15.7402C27.9014 14.2483 29.0909 12.3734 29.0909 10.5455C29.0909 8.71755 27.9014 6.84263 25.5143 5.35066C23.1476 3.87151 19.7876 2.90909 16 2.90909C12.2124 2.90909 8.85237 3.87151 6.48572 5.35066Z" fill="#5E6B7E"/>
<path d="M6.48572 26.4416C4.09857 27.9335 2.90909 29.8085 2.90909 31.6364C2.90909 31.7574 2.91431 31.8787 2.92474 32H0.00897916C0.0030164 31.8796 0 31.7583 0 31.6364C0 28.4435 2.06663 25.773 4.9439 23.9747C5.5879 23.5722 6.28204 23.2061 7.01881 22.8802L11.1856 24.547C9.3822 24.9738 7.7844 25.6299 6.48572 26.4416Z" fill="#5E6B7E"/>
<path d="M22.5455 31.6364C22.5455 31.7598 22.5229 31.8812 22.4792 32L9.52083 32C9.47715 31.8812 9.45455 31.7598 9.45455 31.6364C9.45455 30.2305 12.385 29.0909 16 29.0909C19.615 29.0909 22.5455 30.2305 22.5455 31.6364Z" fill="#5E6B7E"/>
<path d="M16 12.3636C19.615 12.3636 22.5455 11.224 22.5455 9.81818C22.5455 8.41237 19.615 7.27273 16 7.27273C12.385 7.27273 9.45455 8.41237 9.45455 9.81818C9.45455 11.224 12.385 12.3636 16 12.3636Z" fill="#5E6B7E"/>
</svg>
